X: 30061
M: 4/4
L: 1/8
K: Bb
V: 1 staves=2
e2 dc d>e f> d | c>B A d c2 c d |\
e2 d c d <f f> e | d B cB G2 F d/ c/ |\
V: 2 clef=bass middle=d
f2 f f B2 B> B | c2 f f f2 f f |\
f2 f f B <B e> e | f f f2 c2 f f/ f/ |\


